X:905
T:Xiraldilla (CT 427)
R:Xiraldilla
C:Tradicional
S:Msica Tradicional Asturiana, (C) Tello & Tito. Asturies, 2001.
S:http://pagina.de/MusTradAst <telloytito@asturies.org>
N:Xiraldilla, dictada por Prudencia Rodrguez Martnez, "La Policana", de sesenta y siete aos, de San Esteban de Relamiego, ayuntamiento de Tinu.
A:Asturies
O:San Esteban de Relamiego (Tinu)
Z:Cancioneru de Torner 427
M:3/8
L:1/8
Q:3/8=88
K:Cm
|G2 G|cc=B|c =B2|cde|d c2|BcB|A G2-|G2 z|
F2 F|GGA|c B2|cBB|A G2-|G z2||
W:Ai! de m, que no puedo
W:con la tonada; con la tonada;
W:si viniera mi amante
W:que me ayudara!
W:
